X:30
T:Commodore Howe's Ramble
M:6/8
L:1/8
B:Thompson's Compleat Collection of 200 Favourite Country Dances, vol. 2 (London, 1765)
Z:Transcribed and edited by Flynn Titford-Mock, 2007
Z:abc's:AK/Fiddler's Companion
K:G
e/f/ | gdc BAG | FGA AFD | gdc BAG | FAA A2 e/f/ | gdc BAG | FGA AFD | BdB cAF | G[Gg][Gg] [G2g2] :|
K:Bb
B/A/ | Bdd Acc | Bdd Acc | Bdg fdB | Acc c2 B/A/ | Bdd Acc | Bdg fab | fdB ecA | BBB B2 :|

